X: 31
T:Devil's Dream
M:4/4
L:1/8
Q:120
C:Maritime
R:Reel
K:A
|:"A"agae agae|agae fedc|"Bm"dfBc dfBc|dfBc defg|!
"A"agae agae|agae fedc|Bcde gfed|"E"cBAG "A"A2 ee:|!
"A"ceAe ceAe|ceAe cefe|"Bm"dfBc dfBc|dfBcdefe|!
"A"ceAe ceAe|ceAe cefe|"Bm"Aagf edcB|"E"AEFG "A"A2 AA:|
